X: 15
T: Boy in the Boat
C: Trad.
D: Peter Carberry & Pádraig McGovern: Forgotten Gems (2013)
Z: Gwenaël Lambrouin d'après l'interprétation de Cyrille Gaillard du 2017-05-18
R: Reel
M: 2/2
K:D
|: ABAF DFAF | GFEF G2FG | ADED ADED | AFGE DEFG |
   ABAF DFAF | GFEF G2FG | AFA=c BGBd |1 cAGE DEFG :|2 cAGE D2d2
|: cded cAAA | cAdB cAAd | cded cAAd | cAGE EDD2 |
   cded cAAA | cAdB cAB/c/d | effd eged |1 cAGE EDD2 :|2 cAGE DEFG |

